X: 28705
T: My Darling Asleep
R: jig
M: 6/8
K: Dmajor
e|fdd cAA|BGG A2G|FAA def|gfg eag|
fdd cAA|BGG A2G|FAA def|gec d2:|
A|FAA BAG|FAA BAG|FAA def|gfg eag|
fdd cAA|BGG A2G|FAA def|gec d2:|

